2018/img/fb.svg

<svg height="40" viewBox="0 0 40 40" width="40" xmlns="http://www.w3.org/2000/svg"><path d="m686.5 95c2.065983 0 3.832458.7334996 5.299479 2.2005208 1.467021 1.4670213 2.200521 3.2334962 2.200521 5.2994792v25c0 2.065983-.7335 3.832458-2.200521 5.299479s-3.233496 2.200521-5.299479 2.200521h-4.895833v-15.494792h5.182291l.78125-6.041666h-5.963541v-3.854167c0-.972227.203991-1.701386.611979-2.1875s1.202251-.729167 2.382812-.729167l3.177084-.026041v-5.390625c-1.093756-.156251-2.638879-.234375-4.635417-.234375-2.361123 0-4.249125.694437-5.664063 2.083333-1.414937 1.388896-2.122395 3.350682-2.122395 5.885417v4.453125h-5.208334v6.041666h5.208334v15.494792h-13.854167c-2.065983 0-3.832458-.7335-5.299479-2.200521s-2.200521-3.233496-2.200521-5.299479v-25c0-2.065983.7335-3.8324579 2.200521-5.2994792 1.467021-1.4670212 3.233496-2.2005208 5.299479-2.2005208z" fill="#fff" fill-rule="evenodd" transform="translate(-654 -95)"/></svg>

<?xml version="1.0" encoding="UTF-8"?>
<svg width="40px" height="40px" viewBox="0 0 40 40" version="1.1" xmlns="http://www.w3.org/2000/svg" xmlns:xlink="http://www.w3.org/1999/xlink">
    <!-- Generator: Sketch 48.2 (47327) - http://www.bohemiancoding.com/sketch -->
    <title>fb</title>
    <desc>Created with Sketch.</desc>
    <defs></defs>
    <g id="Homepage" stroke="none" stroke-width="1" fill="none" fill-rule="evenodd" transform="translate(-654.000000, -4294.000000)">
        <g id="Footer" transform="translate(0.000000, 4199.000000)" fill="#FFFFFF">
            <path d="M686.5,95 C688.565983,95 690.332458,95.7334996 691.799479,97.2005208 C693.2665,98.6675421 694,100.434017 694,102.5 L694,127.5 C694,129.565983 693.2665,131.332458 691.799479,132.799479 C690.332458,134.2665 688.565983,135 686.5,135 L681.604167,135 L681.604167,119.505208 L686.786458,119.505208 L687.567708,113.463542 L681.604167,113.463542 L681.604167,109.609375 C681.604167,108.637148 681.808158,107.907989 682.216146,107.421875 C682.624134,106.935761 683.418397,106.692708 684.598958,106.692708 L687.776042,106.666667 L687.776042,101.276042 C686.682286,101.119791 685.137163,101.041667 683.140625,101.041667 C680.779502,101.041667 678.8915,101.736104 677.476562,103.125 C676.061625,104.513896 675.354167,106.475682 675.354167,109.010417 L675.354167,113.463542 L670.145833,113.463542 L670.145833,119.505208 L675.354167,119.505208 L675.354167,135 L661.5,135 C659.434017,135 657.667542,134.2665 656.200521,132.799479 C654.7335,131.332458 654,129.565983 654,127.5 L654,102.5 C654,100.434017 654.7335,98.6675421 656.200521,97.2005208 C657.667542,95.7334996 659.434017,95 661.5,95 L686.5,95 Z" id="fb"></path>
        </g>
    </g>
</svg>
